SVG-Icons/Technical/Grafana/grafana-oss-icon-alerting.svg

<svg width="41" height="41" viewBox="0 0 41 41" fill="none" xmlns="http://www.w3.org/2000/svg">
<rect x="0.544922" y="0.396973" width="39.617" height="39.7143" rx="19.8085" fill="#FDC9BE"/>
<path fill-rule="evenodd" clip-rule="evenodd" d="M26 22.0542C26 18.7405 23.3137 16.0542 20 16.0542C16.6863 16.0542 14 18.7405 14 22.0542V27.5542C14 28.3826 13.3284 29.0542 12.5 29.0542H27.5C26.6716 29.0542 26 28.3826 26 27.5542V22.0542Z" stroke="#EF5B3E" stroke-width="1.5" stroke-linecap="round" stroke-linejoin="round"/>
<path d="M21.4149 31.0542C21.2033 31.6539 20.6364 32.055 20.0004 32.055C19.3644 32.055 18.7976 31.6539 18.5859 31.0542" stroke="#EF5B3E" stroke-width="1.5" stroke-linecap="round" stroke-linejoin="round"/>
<path d="M20 14.0552V16.0552" stroke="#EF5B3E" stroke-width="1.5" stroke-linecap="round" stroke-linejoin="round"/>
<path d="M16.5 12.5542C14.0147 12.5542 12 14.5689 12 17.0542" stroke="#EF5B3E" stroke-width="1.5" stroke-linecap="round" stroke-linejoin="round"/>
<path d="M8.5 17.0542C8.5 12.6359 12.0817 9.0542 16.5 9.0542" stroke="#EF5B3E" stroke-width="1.5" stroke-linecap="round" stroke-linejoin="round"/>
<path d="M23.5 12.5542C24.6935 12.5542 25.8381 13.0283 26.682 13.8722C27.5259 14.7161 28 15.8607 28 17.0542" stroke="#EF5B3E" stroke-width="1.5" stroke-linecap="round" stroke-linejoin="round"/>
<path d="M31.5 17.0542C31.5 12.6359 27.9183 9.0542 23.5 9.0542" stroke="#EF5B3E" stroke-width="1.5" stroke-linecap="round" stroke-linejoin="round"/>
</svg>

<svg xmlns="http://www.w3.org/2000/svg" fill="none" viewBox="0 0 41 41"><rect width="39.617" height="39.714" x=".545" y=".397" fill="#FDC9BE" rx="19.808"/><path stroke="#EF5B3E" stroke-linecap="round" stroke-linejoin="round" stroke-width="1.5" d="M26 22.054a6 6 0 0 0-12 0v5.5a1.5 1.5 0 0 1-1.5 1.5h15a1.5 1.5 0 0 1-1.5-1.5v-5.5Z" clip-rule="evenodd"/><path stroke="#EF5B3E" stroke-linecap="round" stroke-linejoin="round" stroke-width="1.5" d="M21.415 31.054a1.5 1.5 0 0 1-2.83 0M20 14.055v2M16.5 12.554a4.5 4.5 0 0 0-4.5 4.5M8.5 17.054a8 8 0 0 1 8-8M23.5 12.554a4.5 4.5 0 0 1 4.5 4.5M31.5 17.054a8 8 0 0 0-8-8"/></svg>
